hero/solid/plus-small.svg

<svg width="24" height="24" viewBox="0 0 24 24" fill="none" xmlns="http://www.w3.org/2000/svg">
<path fill-rule="evenodd" clip-rule="evenodd" d="M12 5.25C12.4142 5.25 12.75 5.58579 12.75 6V11.25L18 11.25C18.4142 11.25 18.75 11.5858 18.75 12C18.75 12.4142 18.4142 12.75 18 12.75H12.75V18C12.75 18.4142 12.4142 18.75 12 18.75C11.5858 18.75 11.25 18.4142 11.25 18V12.75H6C5.58579 12.75 5.25 12.4142 5.25 12C5.25 11.5858 5.58579 11.25 6 11.25L11.25 11.25V6C11.25 5.58579 11.5858 5.25 12 5.25Z" fill="#0F172A"/>
</svg>

<svg viewBox="0 0 24 24" xmlns="http://www.w3.org/2000/svg"><path fill-rule="evenodd" d="M12 5.25v0c.41 0 .75.33.75.75v5.25H18v0c.41 0 .75.33.75.75 0 .41-.34.75-.75.75h-5.25V18v0c0 .41-.34.75-.75.75 -.42 0-.75-.34-.75-.75v-5.25H6v0c-.42 0-.75-.34-.75-.75 0-.42.33-.75.75-.75h5.25V6v0c0-.42.33-.75.75-.75Z"/></svg>
